picto/announcement-framed.svg

<svg class="color-immutable" width="30" height="30" viewBox="0 0 30 30" fill="none" xmlns="http://www.w3.org/2000/svg"><path d="M29.9999 0H0V29.9999H29.9999V0Z" fill="#2D327D"/><path d="M25.4999 2.99999C26.3249 2.99999 26.9999 3.67499 26.9999 4.49999V25.4999C26.9999 26.3249 26.3249 26.9999 25.4999 26.9999H4.49999C3.67499 26.9999 2.99999 26.3249 2.99999 25.4999V4.49999C2.99999 3.67499 3.67499 2.99999 4.49999 2.99999H25.4999ZM25.4999 2.62499H4.49999C3.46612 2.62499 2.62499 3.46612 2.62499 4.49999V25.4999C2.62499 26.5338 3.46612 27.3749 4.49999 27.3749H25.4999C26.5338 27.3749 27.3749 26.5338 27.3749 25.4999V4.49999C27.3749 3.46612 26.5338 2.62499 25.4999 2.62499Z" fill="white"/><path d="M24 15.0036C24 12.9741 23.1556 11.1382 21.8 9.82819C21.6603 9.69319 21.4391 9.69057 21.2934 9.81911L21.2926 9.81979C21.1289 9.96424 21.1226 10.2176 21.2796 10.3693C22.4934 11.5427 23.25 13.186 23.25 15.0036C23.25 16.8177 22.4962 18.458 21.2866 19.631C21.1302 19.7825 21.1365 20.0351 21.2995 20.1796L21.3004 20.1803C21.4462 20.3096 21.668 20.3071 21.8079 20.1715C23.1588 18.8619 24 17.0292 24 15.0036Z" fill="white"/><path d="M21.6 15.0049C21.6 13.4871 20.9521 12.1181 19.9188 11.1588C19.7763 11.0265 19.5579 11.0209 19.4121 11.1495C19.2444 11.2976 19.2449 11.5564 19.4089 11.7087C20.2945 12.5308 20.85 13.704 20.85 15.0049C20.85 16.301 20.2986 17.4701 19.4187 18.2918C19.2558 18.444 19.2554 18.7018 19.4223 18.8496L19.4226 18.8498C19.5685 18.9792 19.788 18.9736 19.9305 18.8405C20.957 17.8817 21.6 16.5171 21.6 15.0049Z" fill="white"/><path d="M19.1999 15.0062C19.1999 13.9925 18.7502 13.0824 18.0404 12.4633C17.8991 12.3402 17.688 12.3413 17.5475 12.4653L17.5462 12.4665C17.375 12.6175 17.3813 12.8819 17.553 13.0323C18.1024 13.5138 18.4499 14.2201 18.4499 15.0062C18.4499 15.7864 18.1075 16.4879 17.5652 16.9689C17.3954 17.1196 17.3898 17.3822 17.5597 17.5327L17.5612 17.534C17.7022 17.659 17.9148 17.66 18.056 17.5353C18.7569 16.9166 19.1999 16.0124 19.1999 15.0062Z" fill="white"/><path d="M6.47826 12.5255C6.35144 12.5255 6.22979 12.5759 6.14009 12.6656C6.05039 12.7553 5.99999 12.8769 5.99999 13.0038V16.9958C5.99999 17.26 6.21411 17.4741 6.47826 17.4741H8.92483V12.5257L6.47826 12.5255Z" fill="white"/><path d="M13.7988 9.2513C13.6273 9.1742 13.4264 9.20442 13.2854 9.3293L9.67479 12.5257V17.4741L13.2854 20.6704C13.3747 20.7493 13.4879 20.7905 13.6024 20.7905C13.6689 20.7905 13.7358 20.7767 13.7987 20.7484C13.9703 20.6711 14.0807 20.5004 14.0807 20.3122V9.6875C14.0807 9.49932 13.9703 9.3287 13.7988 9.2513Z" fill="white"/></svg>

<svg class="color-immutable" width="30" height="30" viewBox="0 0 30 30" fill="none" xmlns="http://www.w3.org/2000/svg"><path d="M30 0H0v30h30V0Z" fill="#2D327D"/><path d="M25.5 3c.825 0 1.5.675 1.5 1.5v21c0 .825-.675 1.5-1.5 1.5h-21c-.825 0-1.5-.675-1.5-1.5v-21C3 3.675 3.675 3 4.5 3h21Zm0-.375h-21A1.877 1.877 0 0 0 2.625 4.5v21c0 1.034.841 1.875 1.875 1.875h21a1.877 1.877 0 0 0 1.875-1.875v-21A1.877 1.877 0 0 0 25.5 2.625Z" fill="#fff"/><path d="M24 15.004c0-2.03-.844-3.866-2.2-5.176a.374.374 0 0 0-.52.541 6.43 6.43 0 0 1 1.97 4.635 6.43 6.43 0 0 1-1.963 4.627.374.374 0 0 0 .012.549h.001c.146.13.368.127.508-.008A7.18 7.18 0 0 0 24 15.004Z" fill="#fff"/><path d="M21.6 15.005a5.236 5.236 0 0 0-1.681-3.846.377.377 0 0 0-.507-.01.376.376 0 0 0-.003.56 4.487 4.487 0 0 1 .01 6.583.376.376 0 0 0 .003.558c.146.13.366.124.508-.01a5.236 5.236 0 0 0 1.67-3.835ZM19.2 15.006c0-1.014-.45-1.924-1.16-2.543a.374.374 0 0 0-.492.002l-.002.002a.376.376 0 0 0 .007.565 2.619 2.619 0 0 1 .012 3.937.376.376 0 0 0-.005.564l.001.001a.374.374 0 0 0 .495.001 3.366 3.366 0 0 0 1.144-2.529ZM6.478 12.525a.478.478 0 0 0-.478.479v3.992c0 .264.214.478.478.478h2.447v-4.948H6.478ZM13.799 9.251a.478.478 0 0 0-.514.078l-3.61 3.197v4.948l3.61 3.196a.479.479 0 0 0 .796-.358V9.687a.479.479 0 0 0-.282-.436Z" fill="#fff"/></svg>
